public/img/ico.svg

<svg xmlns="http://www.w3.org/2000/svg" aria-hidden="true" style="color:#000" viewBox="95 30 100 80.55" width="80" height="80"><path d="M128.3 109c-14.5-9.3-9.3-19.4-9.3-19.4 3-6.9 1.5-11 1.5-11-1.3-6.6 2.9-2.3 2.9-2.3 3.9 4.6 2.1 11 2.1 11-2.6 10.3 5.1 14.6 8.9 15.9" fill="currentColor" class="octo-arm" style="transform-origin:130px 106px;transform:rotate(-45deg)"/><path d="M115 115c-.1.1 3.7 1.5 4.8.4l13.9-13.8c3.2-2.4 6.2-3.2 8.5-3-8.4-10.6-14.7-24.2 1.6-40.6 4.7-4.6 10.2-6.8 15.9-7 .6-1.6 3.5-7.4 11.7-10.9 0 0 4.7 2.4 7.4 16.1 4.3 2.4 8.4 5.6 12.1 9.2 3.6 3.6 6.8 7.8 9.2 12.2 13.7 2.6 16.2 7.3 16.2 7.3-3.6 8.2-9.4 11.1-10.9 11.7-.3 5.8-2.4 11.2-7.1 15.9-16.4 16.4-30 10-40.6 1.6.2 2.8-1 6.8-5 10.8L141 136.5c-1.2 1.2.6 5.4.8 5.3Z" fill="currentColor" class="octo-body" style="transform-origin:130px 106px;transform:rotate(-45deg)"/></svg>

<svg xmlns="http://www.w3.org/2000/svg" xmlns:xlink="http://www.w3.org/1999/xlink" aria-hidden="true" style="color: rgb(0, 0, 0)" viewBox="95 30 100 80.55" width="80" height="80">
        <path d="M128.3,109.0 C113.8,99.7 119.0,89.6 119.0,89.6 C122.0,82.7 120.5,78.6 120.5,78.6 C119.2,72.0 123.4,76.3 123.4,76.3 C127.3,80.9 125.5,87.3 125.5,87.3 C122.9,97.6 130.6,101.9 134.4,103.2" fill="currentColor" class="octo-arm" style="transform-origin: 130px 106px; transform: rotate(-45deg)"/>
        <path d="M115.0,115.0 C114.9,115.1 118.7,116.5 119.8,115.4 L133.7,101.6 C136.9,99.2 139.9,98.4 142.2,98.6 C133.8,88.0 127.5,74.4 143.8,58.0 C148.5,53.4 154.0,51.2 159.7,51.0 C160.3,49.4 163.2,43.6 171.4,40.1 C171.4,40.1 176.1,42.5 178.8,56.2 C183.1,58.6 187.2,61.8 190.9,65.4 C194.5,69.0 197.7,73.2 200.1,77.6 C213.8,80.2 216.3,84.9 216.3,84.9 C212.7,93.1 206.9,96.0 205.4,96.6 C205.1,102.4 203.0,107.8 198.3,112.5 C181.9,128.9 168.3,122.5 157.7,114.1 C157.9,116.9 156.7,120.9 152.7,124.9 L141.0,136.5 C139.8,137.7 141.6,141.9 141.8,141.8 Z" fill="currentColor" class="octo-body" style="transform-origin: 130px 106px; transform: rotate(-45deg)"/>
      </svg>
